X: 21472
T: Gill Morris
%R: air
B: James Oswald "The Caledonian Pocket Companion" v.2 p.147 #2
Z: 2018 John Chambers <jc:trillian.mit.edu>
M: C
L: 1/16
K: G
"_Slow"G4 |\
B4 B4 A4 B4 | e4 d4 (c2B2)(A2G2) | d4 d4 e4 f4 | g12 f4 |\
e4 d4 (c2B2) d4 | e4 (g2B2) (B2A2) (G2E2) | G4 G4 A4 B4 | d12 (gaba) |
g4 e4 (dB3) d4 | e4 (g2B2) (B2A2) (G2E2) | G4 G4 A4 B4 | {B4}d12 :: G3A |\
B4 (edB2) TA4 G3A | B4 (ge)d2 B4 (TA3G) | d4 d4 e4 (de)g2 | g12 (b2a2) |
(g2f2)(e2d2) B4 (d2e2) | (g2e2)(d2B2) A4 G3A | B4 TA3G (ga)b2 Ta3g | e12 b3a |\
(be3)(ge3) d2B2 (AB)d2 | e4 g(edB) TA4 (G2E2) | G6 G2 (TA2G2)(A2B2) | d12 :|


